X:1
T:The Apprentice's Song
M:4/4
L:1/4
K:A
 E A A B| cd/2-c/2 B A| A A F2| D2 E A| A4| E A A B| cd/2-c/2 B A|\
 A A F2| D2 E A| A4| c A d2| c3/2 B/2 A E| C D E3/2 A/2| c A d c| B4|\
 E A A B| cd/2-c/2 B- A| A A F2| D2 E A| A4|
